assets/icons/lock.svg

<?xml version="1.0" encoding="UTF-8"?>
<svg width="20px" height="22px" viewBox="0 0 20 22" version="1.1" xmlns="http://www.w3.org/2000/svg" xmlns:xlink="http://www.w3.org/1999/xlink">
    <title>838283C2-F22D-480B-B4DD-CE3A69D59DE4</title>
    <g id="Page-1" stroke="none" stroke-width="1" fill="none" fill-rule="evenodd">
        <g id="D/Homepage-unlogged" transform="translate(-233.000000, -4276.000000)" fill="#FFFFFF" fill-rule="nonzero">
            <g id="d/-footer" transform="translate(0.000000, 4050.000000)">
                <g id="icon/-lock" transform="translate(233.000000, 226.000000)">
                    <path d="M4.8346056,7.19908467 L11.4503817,7.19908467 L11.4503817,4.85812357 C11.4503817,3.90160183 11.1323155,3.10450038 10.4961832,2.46681922 C9.86005089,1.82913806 9.0754877,1.51029748 8.14249364,1.51029748 C7.20949958,1.51029748 6.42493639,1.82913806 5.78880407,2.46681922 C5.15267176,3.10450038 4.8346056,3.90160183 4.8346056,4.85812357 L4.8346056,7.19908467 Z M10.1017812,21.1441648 L1.52671756,21.1441648 C1.1365564,21.1441648 0.784563189,20.9889397 0.470737913,20.6784897 C0.156912638,20.3680397 0,20.0198322 0,19.6338673 L0,8.70938215 C0,8.32341724 0.156912638,7.97520976 0.470737913,7.66475973 C0.784563189,7.35430969 1.1365564,7.19908467 1.52671756,7.19908467 L3.30788804,7.19908467 L3.30788804,4.85812357 C3.30788804,3.49885584 3.77438507,2.34935164 4.70737913,1.40961098 C5.6403732,0.469870328 6.78541137,0 8.14249364,0 C9.49957591,0 10.6446141,0.469870328 11.5776081,1.40961098 C12.5106022,2.34935164 12.9770992,3.49885584 12.9770992,4.85812357 L12.9770992,7.19908467 L14.7582697,7.19908467 C15.1484309,7.19908467 15.5004241,7.35430969 15.8142494,7.66475973 C16.1280746,7.97520976 16.2849873,8.32341724 16.2849873,8.70938215 L16.2849873,10.8993135 C16.0644614,10.8489703 15.8354538,10.8154081 15.5979644,10.798627 C15.360475,10.7818459 15.0805768,10.7734554 14.7582697,10.7734554 L14.7582697,8.70938215 C14.7582697,8.70938215 14.7582697,8.70938215 14.7582697,8.70938215 C14.7582697,8.70938215 14.7582697,8.70938215 14.7582697,8.70938215 L1.52671756,8.70938215 C1.52671756,8.70938215 1.52671756,8.70938215 1.52671756,8.70938215 C1.52671756,8.70938215 1.52671756,8.70938215 1.52671756,8.70938215 L1.52671756,19.6338673 C1.52671756,19.6338673 1.52671756,19.6338673 1.52671756,19.6338673 C1.52671756,19.6338673 1.52671756,19.6338673 1.52671756,19.6338673 L9.18575064,19.6338673 C9.30449534,19.9191457 9.4317218,20.1750572 9.56743003,20.4016018 C9.70313825,20.6281465 9.8812553,20.8756674 10.1017812,21.1441648 Z M15.0890585,12.2837529 C16.4291773,12.2837529 17.5826972,12.7620137 18.5496183,13.7185355 C19.5165394,14.6750572 20,15.8161709 20,17.1418764 C20,18.467582 19.5165394,19.6086957 18.5496183,20.5652174 C17.5826972,21.5217391 16.4291773,22 15.0890585,22 C13.7489398,22 12.5954198,21.5217391 11.6284987,20.5652174 C10.6615776,19.6086957 10.178117,18.467582 10.178117,17.1418764 C10.178117,15.8161709 10.6615776,14.6750572 11.6284987,13.7185355 C12.5954198,12.7620137 13.7489398,12.2837529 15.0890585,12.2837529 Z M17.7614858,14.6666667 L14.0078201,19.1602837 L12.2385142,17.0421986 L11.8181818,17.5453901 L14.0078201,20.1666667 L18.1818182,15.1698582 L17.7614858,14.6666667 Z" id="Shape"></path>
                </g>
            </g>
        </g>
    </g>
</svg>

<svg width="20" height="22" viewBox="0 0 20 22" xmlns="http://www.w3.org/2000/svg"><path d="M4.835 7.2h6.615V4.857c0-.956-.318-1.753-.954-2.391-.636-.638-1.42-.957-2.354-.957-.933 0-1.717.32-2.353.957-.636.638-.954 1.435-.954 2.391V7.2zm5.267 13.944H1.527c-.39 0-.742-.155-1.056-.466C.157 20.368 0 20.02 0 19.634V8.709c0-.386.157-.734.47-1.044.315-.31.667-.466 1.057-.466h1.78V4.86c0-1.36.467-2.51 1.4-3.45C5.64.47 6.785 0 8.142 0c1.358 0 2.503.47 3.436 1.41.933.94 1.4 2.089 1.4 3.448V7.2h1.78c.39 0 .742.155 1.056.466.314.31.471.658.471 1.044v2.19c-.22-.05-.45-.084-.687-.1a12.114 12.114 0 00-.84-.026V8.71H1.527v10.925h7.659c.118.285.246.541.381.768.136.226.314.474.535.742zm4.987-8.86c1.34 0 2.494.478 3.46 1.435.968.956 1.451 2.097 1.451 3.423s-.483 2.467-1.45 3.423c-.967.957-2.12 1.435-3.46 1.435-1.341 0-2.495-.478-3.462-1.435-.966-.956-1.45-2.097-1.45-3.423s.484-2.467 1.45-3.423c.967-.957 2.12-1.435 3.461-1.435zm2.672 2.383l-3.753 4.493-1.77-2.118-.42.503 2.19 2.622 4.174-4.997-.42-.503z" fill="#291660"/></svg>
